svg/logo.svg

<?xml version="1.0" encoding="UTF-8" standalone="no"?>
<svg
   xmlns:dc="http://purl.org/dc/elements/1.1/"
   xmlns:cc="http://creativecommons.org/ns#"
   xmlns:rdf="http://www.w3.org/1999/02/22-rdf-syntax-ns#"
   xmlns:svg="http://www.w3.org/2000/svg"
   xmlns="http://www.w3.org/2000/svg"
   xmlns:sodipodi="http://sodipodi.sourceforge.net/DTD/sodipodi-0.dtd"
   xmlns:inkscape="http://www.inkscape.org/namespaces/inkscape"
   viewBox="0 0 61.004003 12"
   width="61.004"
   height="12"
   id="svg2"
   version="1.1"
   inkscape:version="0.91 r"
   sodipodi:docname="logo.svg">
  <metadata
     id="metadata10">
    <rdf:RDF>
      <cc:Work
         rdf:about="">
        <dc:format>image/svg+xml</dc:format>
        <dc:type
           rdf:resource="http://purl.org/dc/dcmitype/StillImage" />
      </cc:Work>
    </rdf:RDF>
  </metadata>
  <defs
     id="defs8" />
  <sodipodi:namedview
     pagecolor="#ffffff"
     bordercolor="#666666"
     borderopacity="1"
     objecttolerance="10"
     gridtolerance="10"
     guidetolerance="10"
     inkscape:pageopacity="0"
     inkscape:pageshadow="2"
     inkscape:window-width="1366"
     inkscape:window-height="744"
     id="namedview6"
     showgrid="false"
     inkscape:zoom="30.137001"
     inkscape:cx="17.22928"
     inkscape:cy="7.3272721"
     inkscape:window-x="0"
     inkscape:window-y="24"
     inkscape:window-maximized="1"
     inkscape:current-layer="svg2" />
  <path
     d="M 0.004,0 0,12 1,12 1.004,0 Z m 2,0 0,12 1,0 0,-12 z m 2,0 0,12 1,0 0,-12 z m 5,0 8.996,12 0.004,-11.998 -1.996,0 0.996,1.328 0,7.678 -4,-5.336 0,-3.67 z m 11,0 0,6.588 3,3 0,-9.588 z m 5,0 0,12 4,0 0,-5.334 4,5.334 4,0 0,-1.328 -8,-10.672 z m 8,0 0,3.67 4,5.336 0,-7.678 L 36.008,0 Z m 12,0 0,8.5 -1.674,0 -2,-2 -2.326,0 0,0.502 4.998,4.998 5.002,0 0,-12 z m 6,0 0,2.998 2.748,3.66 -2.748,0 0,2.998 5,0 1.76,2.342 3.24,0 0,-0.644 L 52.479,0 Z m 2.726,0 7.274,9.685 0,-1.667 L 54.983,0 Z m 2.504,0 4.77,6.351 0,-1.667 L 57.486,0 Z m 2.502,0 2.268,3.02 0,-1.67 L 59.988,0 Z m -49.732,6.664 0,5.334 4,0 z m 11,1.334 0,2.588 1.412,1.412 1.588,0 0,-1 z m 19,0.416 0,1.412 2.172,2.172 1.412,0 z"
     id="path4"
     inkscape:connector-curvature="0"
     sodipodi:nodetypes="ccccccccccccccccccccccccccccccccccccccccccccccccccccccccccccccccccccccccccccccccccccccccccccccc" />
</svg>

<svg xmlns="http://www.w3.org/2000/svg" viewBox="0 0 61.004003 12" width="61.004" height="12"><path d="M.004 0L0 12h1l.004-12zM2.004 0v12h1V0h-1zM4.004 0v12h1V0h-1zM9.004 0L18 12 18.004.002h-1.996l.996 1.328v7.678l-4-5.336V.002h-4zM20.004 0v6.588l3 3V0h-3zM25.004 0v12h4V6.666l4 5.334h4v-1.328L29.004 0h-4zM33.004 0v3.67l4 5.336V1.328L36.008 0h-3.004zM45.004 0v8.5H43.33l-2-2h-2.326v.502L44.002 12h5.002V0h-4zM51.004 0v2.998l2.748 3.66h-2.748v2.998h5l1.76 2.342h3.24v-.644L52.479 0h-1.475zM53.73 0l7.274 9.685V8.018L54.983 0H53.73zM56.234 0l4.77 6.351V4.684L57.486 0h-1.252zM58.736 0l2.268 3.02V1.35L59.988 0h-1.252zM9.004 6.664v5.334h4l-4-5.334zM20.004 7.998v2.588l1.412 1.412h1.588v-1l-3-3zM39.004 8.414v1.412l2.172 2.172h1.412l-3.584-3.584z"/></svg>
